X: 84
T: No_22_My_Feathers_Are_Growing_Longer.krn
N: Derived from No_22_My_Feathers_Are_Growing_Longer.krn
%%abc-version 2.0
%%abcx-abcm2ps-target-version 5.9.1 (29 Sep 2008)
%%abc-creator hum2abc beta
%%abcx-conversion-date 2019/03/15 08:37:56
%%humdrum-veritas 1890419633
%%humdrum-veritas-data 141061901
%%linebreak <none>
%%barnumbers 0
L: 1/8
M: 3/4
K: F clef=bass
[K:clef=bass][M:3/4]C4C2 ||  
[M:2/4](B,G,)G,2 | 
C2D2 | 
CCC2 ||  
[M:3/4](B,2G,2)B, z | 
C4(CB,) | 
G,4B,2 | 
(B,G,)-G,2G,F, | 
F,F,- F,D, F, z | 
G,/G,3/-G,2A,G, | 
G,2(F,D,)- D, z | 
G,2(F,2D,2) | 
(F,3D,) F, z |]  



